src/assets/filled/Colorfilter.svg

<?xml version="1.0" encoding="UTF-8"?>
<svg width="24" height="24" viewBox="0 0 24 24" xmlns="http://www.w3.org/2000/svg">
 <path d="m14 16c0 1.77-0.77 3.37-2 4.46-1.06 0.96-2.46 1.54-4 1.54-3.31 0-6-2.69-6-6 0-2.0247 1.014-3.8186 2.5554-4.9026 0.24818-0.1746 0.5839-0.0552 0.71784 0.2171 0.94391 1.9187 2.681 3.3555 4.7468 3.9155 0.63 0.18 1.29 0.27 1.98 0.27 0.4872 0 0.9539-0.0462 1.4074-0.1312 0.2884-0.0541 0.5754 0.1307 0.5881 0.4238 3e-3 0.0695 0.0045 0.1388 0.0045 0.2074z"/>
 <path d="m18 8c0 0.78-0.15 1.53-0.42 2.21-0.69 1.74-2.17 3.08-4 3.58-0.5 0.14-1.03 0.21-1.58 0.21s-1.08-0.07-1.58-0.21c-1.83-0.5-3.31-1.84-4-3.58-0.27-0.68-0.42-1.43-0.42-2.21 0-3.31 2.69-6 6-6s6 2.69 6 6z"/>
 <path d="m22 16c0 3.31-2.69 6-6 6-0.7445 0-1.4607-0.1357-2.1189-0.3859-0.3187-0.1211-0.3781-0.529-0.1563-0.7878 1.142-1.3325 1.7752-3.0403 1.7752-4.8263 0-0.34-0.03-0.68-0.08-1-0.0298-0.1844 0.0644-0.3658 0.2278-0.4562 1.3241-0.7331 2.4054-1.8562 3.0792-3.2285 0.1339-0.2725 0.4698-0.3922 0.7182-0.2175 1.5411 1.0841 2.5548 2.8778 2.5548 4.9022z"/>
</svg>

<svg width="24" height="24" viewBox="0 0 24 24"  xmlns="http://www.w3.org/2000/svg">
<path d="M14 16C14 17.77 13.23 19.37 12 20.46C10.94 21.42 9.54 22 8 22C4.69 22 2 19.31 2 16C2 13.9753 3.01397 12.1814 4.5554 11.0974C4.80358 10.9228 5.1393 11.0422 5.27324 11.3145C6.21715 13.2332 7.95419 14.67 10.02 15.23C10.65 15.41 11.31 15.5 12 15.5C12.4872 15.5 12.9539 15.4538 13.4074 15.3688C13.6958 15.3147 13.9828 15.4995 13.9955 15.7926C13.9985 15.8621 14 15.9314 14 16Z" />
<path d="M18 8C18 8.78 17.85 9.53 17.58 10.21C16.89 11.95 15.41 13.29 13.58 13.79C13.08 13.93 12.55 14 12 14C11.45 14 10.92 13.93 10.42 13.79C8.59 13.29 7.11 11.95 6.42 10.21C6.15 9.53 6 8.78 6 8C6 4.69 8.69 2 12 2C15.31 2 18 4.69 18 8Z" />
<path d="M22 16C22 19.31 19.31 22 16 22C15.2555 22 14.5393 21.8643 13.8811 21.6141C13.5624 21.493 13.503 21.0851 13.7248 20.8263C14.8668 19.4938 15.5 17.786 15.5 16C15.5 15.66 15.47 15.32 15.42 15C15.3902 14.8156 15.4844 14.6342 15.6478 14.5438C16.9719 13.8107 18.0532 12.6876 18.727 11.3153C18.8609 11.0428 19.1968 10.9231 19.4452 11.0978C20.9863 12.1819 22 13.9756 22 16Z" />
</svg>
